X:6
T:Stjuls e. Pers Erik
R:snoa
Z:2001 Brian Wilson <baab@mediaone.net>
M:4/4
L:1/8
K:G
"A"
|: "G"d3B dBdg | "G"b2 b2 g4 | "G"G2Bd "D"dcAF | "G"GFGA B2 "D"c2
|  "G"d3B dBdg | "G"b2 b2 g4 | "G"G2Bd "D"dcAF | "D"A2GF "G"G4 :|
"B"
K:D
| "D"F3G ABAF | "D"A2d2 f2d2 | "A"cdef g2ec | "D"dcde f2 d2
| "D"F3G ABAF | "D"A2d2 f2d2 | "A"cdef g2ec | "A"e2 "D"d2 d4 :||
